ExpEYES17/UserManual/schematics/res-water.svg

<?xml version="1.0" encoding="UTF-8" standalone="no"?>
<svg
   xmlns:dc="http://purl.org/dc/elements/1.1/"
   xmlns:cc="http://creativecommons.org/ns#"
   xmlns:rdf="http://www.w3.org/1999/02/22-rdf-syntax-ns#"
   xmlns:svg="http://www.w3.org/2000/svg"
   xmlns="http://www.w3.org/2000/svg"
   xmlns:sodipodi="http://sodipodi.sourceforge.net/DTD/sodipodi-0.dtd"
   xmlns:inkscape="http://www.inkscape.org/namespaces/inkscape"
   version="1.1"
   id="res-water"
   width="100%"
   height="100%"
   viewBox="-6 -6 598 310"
   sodipodi:docname="res-water.svg"
   inkscape:export-filename="/home/georgesk/developpement/expeyes/expeyes/ExpEYES17/UserManual/fr/rst/exp/schematics/res-water.png"
   inkscape:export-xdpi="48.484848"
   inkscape:export-ydpi="48.484848"
   inkscape:version="0.92.3 (2405546, 2018-03-11)">
  <metadata
     id="metadata87">
    <rdf:RDF>
      <cc:Work
         rdf:about="">
        <dc:format>image/svg+xml</dc:format>
        <dc:type
           rdf:resource="http://purl.org/dc/dcmitype/StillImage" />
        <dc:title />
      </cc:Work>
    </rdf:RDF>
  </metadata>
  <defs
     id="defs85" />
  <sodipodi:namedview
     pagecolor="#ffffff"
     bordercolor="#666666"
     borderopacity="1"
     objecttolerance="10"
     gridtolerance="10"
     guidetolerance="10"
     inkscape:pageopacity="0"
     inkscape:pageshadow="2"
     inkscape:window-width="1668"
     inkscape:window-height="1013"
     id="namedview83"
     showgrid="false"
     inkscape:zoom="1.7892977"
     inkscape:cx="299"
     inkscape:cy="155"
     inkscape:window-x="0"
     inkscape:window-y="0"
     inkscape:window-maximized="1"
     inkscape:current-layer="res-water" />
  <desc
     id="desc2">
XCircuit Version 3.7
File &quot;res-water.ps&quot; Page 1
</desc>
  <text
     font-size="40"
     id="text6"
     style="font-size:40px;font-family:Helvetica;fill:#000000;stroke:none"
     x="125.61266"
     y="278.68155">
    <tspan
       x="125.61266"
       y="278.68155"
       id="tspan4">Water</tspan>
  </text>
  <path
     style="fill:none;stroke:#000000;stroke-width:2;stroke-linecap:round;stroke-linejoin:bevel"
     inkscape:connector-curvature="0"
     id="path10"
     d="m 96,192 v 96 h 160 v -96" />
  <path
     style="fill:none;stroke:#000000;stroke-width:2;stroke-linecap:round;stroke-linejoin:bevel"
     inkscape:connector-curvature="0"
     id="path12"
     d="M 96,224 H 256" />
  <text
     font-size="40"
     id="text16"
     style="font-size:40px;font-family:Helvetica;fill:#000000;stroke:none"
     x="30.903437"
     y="62.580002">
    <tspan
       x="30.903437"
       y="62.580002"
       id="tspan14">WG</tspan>
  </text>
  <path
     style="fill:none;stroke:#000000;stroke-width:2;stroke-linecap:round;stroke-linejoin:bevel"
     inkscape:connector-curvature="0"
     id="path20"
     d="m 16,16 v 64 h 96 V 16 Z" />
  <path
     style="fill:none;stroke:#000000;stroke-width:2;stroke-linecap:round;stroke-linejoin:bevel"
     inkscape:connector-curvature="0"
     id="path22"
     d="m 208,240 c 16,0 16,-208 112,-16" />
  <text
     font-size="40"
     id="text26"
     style="font-size:40px;font-family:Helvetica;fill:#000000;stroke:none"
     x="288.08063"
     y="62.580002">
    <tspan
       x="288.08063"
       y="62.580002"
       id="tspan24">A2</tspan>
  </text>
  <path
     style="fill:none;stroke:#000000;stroke-width:2;stroke-linecap:round;stroke-linejoin:bevel"
     inkscape:connector-curvature="0"
     id="path30"
     d="m 272,16 v 64 h 80 V 16 Z" />
  <path
     style="fill:none;stroke:#000000;stroke-width:2;stroke-linecap:round;stroke-linejoin:bevel"
     inkscape:connector-curvature="0"
     id="path32"
     d="m 352,224 h 28" />
  <path
     style="fill:none;stroke:#000000;stroke-width:2;stroke-linecap:round;stroke-linejoin:bevel"
     inkscape:connector-curvature="0"
     id="path34"
     d="M 480,224 H 452" />
  <path
     style="fill:none;stroke:#000000;stroke-width:2;stroke-linecap:round;stroke-linejoin:bevel"
     inkscape:connector-curvature="0"
     id="path36"
     d="m 452,224 -6,-14 -12,28 -12,-28 -12,28 -12,-28 -12,28 -6,-14" />
  <path
     style="fill:none;stroke:#000000;stroke-width:2;stroke-linecap:round;stroke-linejoin:bevel"
     inkscape:connector-curvature="0"
     id="path38"
     d="M 464,16 V 80 H 576 V 16 Z" />
  <text
     font-size="40"
     id="text42"
     style="font-size:40px;font-family:Helvetica;fill:#000000;stroke:none"
     x="160"
     y="208">
    <tspan
       x="160"
       y="208"
       id="tspan40">R</tspan>
  </text>
  <text
     font-size="40"
     id="text48"
     style="font-size:40px;font-family:Helvetica;fill:#000000;stroke:none"
     x="400"
     y="192">
    <tspan
       x="400"
       y="192"
       id="tspan46">R1</tspan>
  </text>
  <text
     font-size="40"
     id="text54"
     style="font-size:40px;font-family:Helvetica;fill:#000000;stroke:none"
     x="171.36063"
     y="62.580002">
    <tspan
       x="171.36063"
       y="62.580002"
       id="tspan52">A1</tspan>
  </text>
  <path
     style="fill:none;stroke:#000000;stroke-width:2;stroke-linecap:round;stroke-linejoin:bevel"
     inkscape:connector-curvature="0"
     id="path58"
     d="m 160,16 v 64 h 64 V 16 Z" />
  <circle
     style="fill:none;stroke:#000000;stroke-width:2;stroke-linecap:round;stroke-linejoin:bevel"
     r="16"
     id="ellipse60"
     cy="224"
     cx="336" />
  <circle
     style="fill:none;stroke:#000000;stroke-width:2;stroke-linecap:round;stroke-linejoin:bevel"
     r="16"
     id="ellipse62"
     cy="224"
     cx="496" />
  <text
     font-size="40"
     id="text66"
     style="font-size:40px;font-family:Helvetica;fill:#000000;stroke:none"
     x="475.78"
     y="62.580002">
    <tspan
       x="475.78"
       y="62.580002"
       id="tspan64">GND</tspan>
  </text>
  <path
     style="fill:none;stroke:#000000;stroke-width:2;stroke-linecap:round;stroke-linejoin:bevel"
     inkscape:connector-curvature="0"
     id="path70"
     d="m 128,240 c 16,0 0,-80 -64,-160" />
  <path
     style="fill:none;stroke:#000000;stroke-width:2;stroke-linecap:round;stroke-linejoin:bevel"
     inkscape:connector-curvature="0"
     id="path72"
     d="m 192,80 c 16,0 -48,64 -128,0" />
  <path
     style="fill:none;stroke:#000000;stroke-width:2;stroke-linecap:round;stroke-linejoin:bevel"
     inkscape:connector-curvature="0"
     id="path74"
     d="M 336,208 C 352,208 288,80 304,80" />
  <path
     style="fill:none;stroke:#000000;stroke-width:2;stroke-linecap:round;stroke-linejoin:bevel"
     inkscape:connector-curvature="0"
     id="path76"
     d="m 496,208 c 16,0 0,-128 16,-128" />
  <path
     style="fill:none;stroke:#000000;stroke-width:2;stroke-linecap:round;stroke-linejoin:bevel"
     inkscape:connector-curvature="0"
     id="path78"
     d="M 0,0 V 304 H 592 V 0 Z" />
</svg>

<svg xmlns="http://www.w3.org/2000/svg"
   xmlns:xlink="http://www.w3.org/1999/xlink"
   version="1.1"
   id="res-water" width="100%" height="100%"  viewBox="-6 -6 598 310">
<desc>
XCircuit Version 3.7
File "res-water.ps" Page 1
</desc>
<g stroke="black">
<g transform="matrix(   1    0   -0    1 112 272)" fill="#000000" >
<text stroke="none" font-family="Helvetica" font-size="40" ><tspan x="0" y="0">Water</tspan>
</text></g>
<path d="M96,192 L96,288 256,288 256,192 " fill="none" stroke-width="2" stroke-linejoin="bevel" stroke-linecap="round" stroke="#000000" />
<path d="M96,224 L256,224 " fill="none" stroke-width="2" stroke-linejoin="bevel" stroke-linecap="round" stroke="#000000" />
<g transform="matrix(   1    0   -0    1  32  64)" fill="#000000" >
<text stroke="none" font-family="Helvetica" font-size="40" ><tspan x="0" y="0">WG</tspan>
</text></g>
<path d="M16,16 L16,80 112,80 112,16 z" fill="none" stroke-width="2" stroke-linejoin="bevel" stroke-linecap="round" stroke="#000000" />
<path d="M208,240 C224,240 224,32 320,224 " fill="none" stroke-width="2" stroke-linejoin="bevel" stroke-linecap="round" stroke="#000000" />
<g transform="matrix(   1    0   -0    1 288  64)" fill="#000000" >
<text stroke="none" font-family="Helvetica" font-size="40" ><tspan x="0" y="0">A2</tspan>
</text></g>
<path d="M272,16 L272,80 352,80 352,16 z" fill="none" stroke-width="2" stroke-linejoin="bevel" stroke-linecap="round" stroke="#000000" />
<path d="M352,224 L380,224 " fill="none" stroke-width="2" stroke-linejoin="bevel" stroke-linecap="round" stroke="#000000" />
<path d="M480,224 L452,224 " fill="none" stroke-width="2" stroke-linejoin="bevel" stroke-linecap="round" stroke="#000000" />
<path d="M452,224 L446,210 434,238 422,210 410,238 398,210 386,238 380,224 " fill="none" stroke-width="2" stroke-linejoin="bevel" stroke-linecap="round" stroke="#000000" />
<path d="M464,16 L464,80 576,80 576,16 z" fill="none" stroke-width="2" stroke-linejoin="bevel" stroke-linecap="round" stroke="#000000" />
<g transform="matrix(   1    0   -0    1 160 208)" fill="#000000" >
<text stroke="none" font-family="Helvetica" font-size="40" ><tspan x="0" y="0">R</tspan>
</text></g>
<g transform="matrix(   1    0   -0    1 400 192)" fill="#000000" >
<text stroke="none" font-family="Helvetica" font-size="40" ><tspan x="0" y="0">R1</tspan>
</text></g>
<g transform="matrix(   1    0   -0    1 160  64)" fill="#000000" >
<text stroke="none" font-family="Helvetica" font-size="40" ><tspan x="0" y="0">A1</tspan>
</text></g>
<path d="M160,16 L160,80 224,80 224,16 z" fill="none" stroke-width="2" stroke-linejoin="bevel" stroke-linecap="round" stroke="#000000" />
<ellipse cx="336" cy="224" rx="16" ry="16" fill="none" stroke-width="2" stroke-linejoin="bevel" stroke-linecap="round" stroke="#000000" />
<ellipse cx="496" cy="224" rx="16" ry="16" fill="none" stroke-width="2" stroke-linejoin="bevel" stroke-linecap="round" stroke="#000000" />
<g transform="matrix(   1    0   -0    1 480  64)" fill="#000000" >
<text stroke="none" font-family="Helvetica" font-size="40" ><tspan x="0" y="0">GND</tspan>
</text></g>
<path d="M128,240 C144,240 128,160 64,80 " fill="none" stroke-width="2" stroke-linejoin="bevel" stroke-linecap="round" stroke="#000000" />
<path d="M192,80 C208,80 144,144 64,80 " fill="none" stroke-width="2" stroke-linejoin="bevel" stroke-linecap="round" stroke="#000000" />
<path d="M336,208 C352,208 288,80 304,80 " fill="none" stroke-width="2" stroke-linejoin="bevel" stroke-linecap="round" stroke="#000000" />
<path d="M496,208 C512,208 496,80 512,80 " fill="none" stroke-width="2" stroke-linejoin="bevel" stroke-linecap="round" stroke="#000000" />
<path d="M0,0 L0,304 592,304 592,0 z" fill="none" stroke-width="2" stroke-linejoin="bevel" stroke-linecap="round" stroke="#000000" />
</g>
</svg>
